public/payments/crypto/polygon.svg

<svg width="17" height="17" viewBox="0 0 17 17" fill="none" xmlns="http://www.w3.org/2000/svg">
<g clip-path="url(#clip0_209_177)">
<path d="M8.5 17C13.1944 17 17 13.1944 17 8.5C17 3.80558 13.1944 0 8.5 0C3.80558 0 0 3.80558 0 8.5C0 13.1944 3.80558 17 8.5 17Z" fill="#8247E5"/>
<path d="M11.4146 6.58939C11.2078 6.47133 10.9414 6.47133 10.7044 6.58939L9.04735 7.56594L7.92346 8.18739L6.29571 9.16394C6.0884 9.282 5.82207 9.282 5.58548 9.16394L4.31285 8.39422C4.20475 8.33055 4.11514 8.23978 4.05286 8.13087C3.99058 8.02197 3.95779 7.8987 3.95773 7.77325V6.29378C3.95773 6.05672 4.07579 5.82014 4.31285 5.67233L5.58548 4.93236C5.79232 4.8143 6.05865 4.8143 6.29571 4.93236L7.56787 5.70208C7.77518 5.82014 7.92299 6.05672 7.92299 6.32305V7.29961L9.04735 6.64889V5.64305C9.04735 5.406 8.92929 5.16894 8.69223 5.02114L6.32499 3.63044C6.11815 3.51239 5.85182 3.51239 5.61476 3.63044L3.18849 5.05089C2.9519 5.16894 2.83337 5.406 2.83337 5.64258V8.42397C2.83337 8.66103 2.95143 8.89761 3.18849 9.04542L5.58548 10.4366C5.79232 10.5546 6.05865 10.5546 6.29571 10.4366L7.92299 9.4893L9.04735 8.83858L10.6751 7.8913C10.8819 7.77325 11.1483 7.77325 11.3853 7.8913L12.6575 8.63128C12.8648 8.74933 13.0126 8.98639 13.0126 9.25272V10.7322C13.0126 10.9688 12.8945 11.2058 12.6575 11.3536L11.4146 12.0936C11.2078 12.2117 10.9414 12.2117 10.7044 12.0936L9.43221 11.3536C9.32404 11.2899 9.23439 11.1991 9.1721 11.0901C9.10982 10.9811 9.07707 10.8577 9.0771 10.7322V9.78539L7.95226 10.4361V11.4122C7.95226 11.6492 8.07032 11.8858 8.30737 12.0336L10.7039 13.4248C10.9112 13.5429 11.1775 13.5429 11.4141 13.4248L13.8111 12.0336C14.0184 11.9156 14.1662 11.6785 14.1662 11.4122V8.60105C14.1662 8.36494 14.0482 8.12789 13.8111 7.97961L11.4141 6.58891L11.4146 6.58939Z" fill="white"/>
</g>
<defs>
<clipPath id="clip0_209_177">
<rect width="17" height="17" fill="white"/>
</clipPath>
</defs>
</svg>

<svg xmlns="http://www.w3.org/2000/svg" width="17" height="17" fill="none"><g clip-path="url(#a)"><path fill="#8247E5" d="M8.5 17a8.5 8.5 0 1 0 0-17 8.5 8.5 0 0 0 0 17Z"/><path fill="#fff" d="M11.41 6.59a.76.76 0 0 0-.7 0l-1.66.98-1.13.62-1.62.97a.76.76 0 0 1-.71 0L4.3 8.4a.72.72 0 0 1-.35-.62V6.3c0-.23.12-.47.35-.62l1.28-.74c.2-.12.47-.12.7 0l1.28.77c.2.12.35.36.35.62v.98l1.13-.65v-1a.73.73 0 0 0-.36-.63L6.32 3.63a.76.76 0 0 0-.7 0L3.18 5.05a.65.65 0 0 0-.36.6v2.77c0 .24.12.48.36.63l2.4 1.39c.2.11.47.11.7 0l1.63-.95 1.13-.65 1.63-.95c.2-.12.47-.12.7 0l1.28.74c.2.12.35.36.35.62v1.48c0 .24-.12.48-.35.62l-1.25.74a.76.76 0 0 1-.7 0l-1.28-.74a.72.72 0 0 1-.35-.62V9.8l-1.13.65v.97c0 .24.12.48.36.62l2.4 1.4c.2.11.47.11.7 0l2.4-1.4c.2-.11.36-.35.36-.62v-2.8a.73.73 0 0 0-.36-.63l-2.4-1.4Z"/></g><defs><clipPath id="a"><path fill="#fff" d="M0 0h17v17H0z"/></clipPath></defs></svg>
